X:2003
T:Belle Catherine, La
R:Reel
C:Trad.
O:Canada, Quebec
Z:Paul Hardy's Session Tunebook 2015 (see www.paulhardy.net). Creative Commons cc by-nc-sa licenced.
M:4/4
L:1/8
Q:1/4=120
K:Dmaj
"D"DD FA dfed|"A"cc Ac"G" BBGB|"D"A>B A>G FAdf|"G"gg "D"fa "A7"ec "D"d2:|
|:[M:6/4]"D"fa (3aaa fd ef "G"gb (3bbb|[M:4/4]"D"fa (3aaa fd ef|"G"g2 "D"fa "A7"ec "D"dd:|
|:"D"DD FA dfed|"A"cc Ac "G"BB GB|"D"A>B A>G FAdf|"G"gg "D"fa "A7"ec "D"d2:|
"D"DFAF DFAF|"G"DGBG DGBG|"D"DFAF DFAF|"A"A,CEC A,CEC|
"D"DFAF DFAF|"G"DGBG DGBG|"D"A>B A>G FAdf|"G"gg "D"fa "A7"ec "D"d2|]
% --------------------------------- M ---------------------------------------

